X:1
T:Dijon, 87.87
T:Dijon, 87.87
T:J. G. Bitthauer, 1794
T:Public Domain Courtesy of the Cyber Hymnal™
C:J. G. Bitthauer, 1794
Z:Public Domain
Z:Courtesy of the Cyber Hymnal™
%%score ( 1 2 ) ( 3 4 )
L:1/8
Q:1/4=130
M:4/2
K:F
V:1 treble 
V:2 treble 
V:3 bass 
V:4 bass 
V:1
 [CF]6 [CF]2 [CF]2 [CF]2 [CE]2 [CF]2 | A8 [EG]8 | [EG]6 [EG]2 [EG]2 [EG]2 F2 [EG]2 | [FA]8 | %4
 [FA]6 [FA]2 [FA]2 [FA]2 [EG]2 [DF]2 | d8 [Ec]8 | [Gc]2 [FA]2 [Ec]2 [DB]2 [B,D]4 [CE]4 | [CF]8 |] %8
V:2
 x16 | (F4 D4) x8 | x12 F2 x2 | x8 | x16 | (D4 F4) x8 | x16 | x8 |] %8
V:3
 [F,A,]6 [F,A,]2 [F,A,]2 [A,C]2 [G,B,]2 [F,A,]2 | [C,C]8 [C,C]8 | %2
 [C,C]6 [C,C]2 [C,C]2 [B,C]2 [A,C]2 [G,C]2 | [F,C]8 | [D,D]6 [D,D]2 [D,D]2 [D,D]2 [E,^C]2 [F,D]2 | %5
 ([G,B,]4 =B,4) [A,C]8 | [E,C]2 [F,C]2 [A,,F,]2 [B,,F,]2 [C,F,]4 [C,B,]4 | [F,A,]8 |] %8
V:4
 x16 | x16 | x16 | x8 | x16 | x4 =B,4 x8 | x16 | x8 |] %8

